src/assets/WhiteShape.svg

<svg height="48" viewBox="0 0 48 48" width="48" xmlns="http://www.w3.org/2000/svg"><path d="m973.86482 425.230769c-4.308391 1.077791-8.700349 1.788028-13.128672 2.123077-4.228347-.315064-8.417901-1.025862-12.513747-2.123077 1.00865 6.292658 6.422158 10.928826 12.790463 10.953846 6.377231.033314 11.849833-4.619906 12.851956-10.953846zm6.455206-11.259027c3.245771 7.817424 1.464613 16.821855-4.512461 22.812194-5.977074 5.99034-14.972164 7.786076-22.788532 4.549393-7.816368-3.236684-12.913656-10.867936-12.913656-19.333329.016878-11.536489 9.348885-20.889208 20.876741-20.923122 8.459076-.012404 16.092136 5.077439 19.337908 12.894864zm-43.320026 8.028258c0 13.254834 10.73716 24 23.982118 24s23.982118-10.745166 23.982118-24-10.73716-24-23.982118-24-23.982118 10.745166-23.982118 24z" fill="#f5f5f5" fill-rule="evenodd" transform="translate(-937 -398)"/></svg>

<?xml version="1.0" encoding="UTF-8"?>
<svg width="48px" height="48px" viewBox="0 0 48 48" version="1.1" xmlns="http://www.w3.org/2000/svg" xmlns:xlink="http://www.w3.org/1999/xlink">
    <title>9880AA4A-D78B-4B89-A9FA-847633A6DA3F@2x</title>
    <g id="Design" stroke="none" stroke-width="1" fill="none" fill-rule="evenodd">
        <g id="Our-Dental-Clinic" transform="translate(-937.000000, -398.000000)" fill="#F5F5F5">
            <path d="M973.86482,425.230769 C969.556429,426.30856 965.164471,427.018797 960.736148,427.353846 C956.507801,427.038782 952.318247,426.327984 948.222401,425.230769 C949.231051,431.523427 954.644559,436.159595 961.012864,436.184615 C967.390095,436.217929 972.862697,431.564709 973.86482,425.230769 Z M980.320026,413.971742 C983.565797,421.789166 981.784639,430.793597 975.807565,436.783936 C969.830491,442.774276 960.835401,444.570012 953.019033,441.333329 C945.202665,438.096645 940.105377,430.465393 940.105377,422 C940.122255,410.463511 949.454262,401.110792 960.982118,401.076878 C969.441194,401.064474 977.074254,406.154317 980.320026,413.971742 Z M937,422 C937,435.254834 947.73716,446 960.982118,446 C974.227076,446 984.964236,435.254834 984.964236,422 C984.964236,408.745166 974.227076,398 960.982118,398 C947.73716,398 937,408.745166 937,422 Z" id="Shape"></path>
        </g>
    </g>
</svg>
